X:1
T: Little Rascals
I:
C: W-31
M: 3/4
Z:
R: waltz
K: C
"(G)"G2 ^F2 =F2 | "C"E4 G2| A4 c2| e6| "Cdim"a6| "C"g4 e2| f4 e2| "F"A6-| A6|
"G"F4 G2| A4 B2| d6| f4 b2| a4 g2| "G+"^f4 =f2| "C"e6-| "(G)"e6|
"C"E4 G2| "(Cdim)"A4 c2| "C"e6| "Cdim"a6| "C7"g4 e2| d4 c2| "F"c'6-| c'6|
"(Fdim)"a4 a2| "C"g4 c2| "(Abdim)"f4 e2| "Am"A4 c2| "D"d4 e2| "G"G4 A2| "C"c6|]
%
